remix/Media/repeat-one-line.svg

<svg viewBox="0 0 24 24" fill="currentColor" xmlns="http://www.w3.org/2000/svg"><path d="M8 20V21.9325C8 22.2086 7.77614 22.4325 7.5 22.4325C7.38303 22.4325 7.26977 22.3915 7.17991 22.3166L3.06093 18.8841C2.84879 18.7073 2.82013 18.392 2.99691 18.1799C3.09191 18.0659 3.23264 18 3.38103 18L18 18C19.1046 18 20 17.1046 20 16V8H22V16C22 18.2091 20.2091 20 18 20H8ZM16 2.0675C16 1.79136 16.2239 1.5675 16.5 1.5675C16.617 1.5675 16.7302 1.60851 16.8201 1.68339L20.9391 5.11587C21.1512 5.29266 21.1799 5.60794 21.0031 5.82008C20.9081 5.93407 20.7674 5.99998 20.619 5.99998L6 6C4.89543 6 4 6.89543 4 8V16H2V8C2 5.79086 3.79086 4 6 4H16V2.0675ZM11 8H13V16H11V10H9V9L11 8Z"/></svg>

<svg viewBox="0 0 24 24" xmlns="http://www.w3.org/2000/svg"><path fill="none" d="M0 0h24v24H0Z"/><path d="M8 20v1.93 0c0 .27-.23.5-.5.5 -.12 0-.24-.05-.33-.12l-4.12-3.433h0c-.22-.18-.25-.5-.07-.71 .09-.12.23-.19.38-.18h14.618v0c1.1 0 2-.9 2-2v-8h2v8 0c0 2.2-1.8 4-4 4h-10ZM16 2.06v0c-.01-.28.22-.51.49-.51 .11-.01.23.04.32.11l4.12 3.43v0c.21.17.24.49.06.7 -.1.11-.24.18-.39.17H5.98v0c-1.11 0-2 .89-2 2v8h-2v-8 0c0-2.21 1.79-4 4-4h10V2.02Zm-5 5.93h2v8h-2v-6H9v-1l2-1Z"/></svg>
